X: 25594
T: Marnix' Tune
R: jig
M: 6/8
K: Dmajor
|:[M:7/8] FBB dcB2|[M:5/8] AF ABd|[M:6/8] ~F3 dcB|AEE DEE|AFA ABd|
[M:7/8] F2B dcB2|[M:5/8] AF ABd|[M:6/8] cAA eAA|1 cAc d2B:|2 AFA cde||
|:[M:7/8] fBB dBe2|[M:5/8] de aga|[M:6/8] fAA a2g|~e3 e2c|~f3 d2B|
GBB dBB|1 cAA eAA|fAA a2g:|2 cAA fAA|gAA a2g||

